X: 20641
T: John Spence Of Uyeasound
R: reel
M: 4/4
K: Amajor
AB|c2ce dcBA|ceef a2AB|c2ce dcBA|cBBc B2AB|
c2ce dcBA|ceef a2ea|f2df e2ce|dBGB A2:|
|:cB|A2a2 c2Bc|A2ce f2e2|f2df e2ce|dcBA BdcB|
A2a2 c2Bc|A2ce f2e2|f2df e2ce|dBGB A2:|

